X: 1
T: Up Da Stroods (da Sailors Go)
O: trad. Shetland
M: 4/4
L: 1/8
R: reel
S: http://www.feisgleannalbainn.co.uk/Tunes/Lass,%20Stroods,%20Sassakia.pdf
K: Bm
|:     B2B2 dBB2 | FBB2 dBAF | B2dB ABde | faef dBAF :|
|: [A2D2]ag fede | f2af f2af | fgag fede | faef dBAF :|
